wp-content/plugins/one-click-demo-import/assets/images/icons/question-circle.svg

<svg width="20" height="20" viewBox="0 0 20 20" fill="none" xmlns="http://www.w3.org/2000/svg">
<path d="M10 12.9688C9.375 12.9688 8.90625 13.4766 8.90625 14.0625C8.90625 14.6875 9.375 15.1562 10 15.1562C10.5859 15.1562 11.0938 14.6875 11.0938 14.0625C11.0938 13.4766 10.5859 12.9688 10 12.9688ZM10.2734 12.0312C10.5469 12.0312 10.7422 11.8359 10.7422 11.5625C10.7422 9.88281 13.7891 10 13.7891 7.38281C13.7891 5.39062 11.9922 4.21875 9.96094 4.21875C8.20312 4.21875 7.22656 4.92188 6.40625 5.97656C6.25 6.21094 6.28906 6.48438 6.52344 6.64062L7.03125 7.03125C7.22656 7.14844 7.5 7.10938 7.65625 6.91406C8.24219 6.17188 8.82812 5.78125 9.96094 5.78125C11.5234 5.78125 12.2266 6.60156 12.2266 7.38281C12.2266 9.0625 9.17969 8.82812 9.17969 11.5625C9.17969 11.8359 9.41406 12.0312 9.64844 12.0312H10.2734ZM10 1.25C14.6094 1.25 18.4375 5.03906 18.4375 9.6875C18.4375 14.375 14.6484 18.125 10 18.125C5.3125 18.125 1.5625 14.375 1.5625 9.6875C1.5625 5.03906 5.3125 1.25 10 1.25ZM10 0C4.64844 0 0.3125 4.375 0.3125 9.6875C0.3125 15.0391 4.64844 19.375 10 19.375C15.3125 19.375 19.6875 15.0391 19.6875 9.6875C19.6875 4.375 15.3125 0 10 0Z" fill="#666666"/>
</svg>

<svg xmlns="http://www.w3.org/2000/svg" width="20" height="20" fill="none"><path fill="#666" d="M10 12.969c-.625 0-1.094.508-1.094 1.094 0 .624.469 1.093 1.094 1.093.586 0 1.094-.469 1.094-1.094 0-.585-.508-1.093-1.094-1.093m.273-.938a.45.45 0 0 0 .47-.469c0-1.68 3.046-1.562 3.046-4.18 0-1.991-1.797-3.163-3.828-3.163-1.758 0-2.734.703-3.555 1.758-.156.234-.117.507.117.664l.508.39a.49.49 0 0 0 .625-.117c.586-.742 1.172-1.133 2.305-1.133 1.562 0 2.266.82 2.266 1.602 0 1.68-3.047 1.445-3.047 4.18 0 .273.234.468.468.468zM10 1.25c4.61 0 8.438 3.79 8.438 8.438A8.427 8.427 0 0 1 10 18.124a8.4 8.4 0 0 1-8.437-8.437A8.427 8.427 0 0 1 10 1.25M10 0C4.648 0 .313 4.375.313 9.688A9.686 9.686 0 0 0 10 19.374c5.313 0 9.688-4.336 9.688-9.687C19.688 4.375 15.313 0 10 0"/></svg>
